icons/lines/android.svg

<svg xmlns="http://www.w3.org/2000/svg" width="24" height="24" viewBox="0 0 24 24" fill="none" stroke="currentColor" stroke-width="2" stroke-linecap="round" stroke-linejoin="round">
  <path d="M13 18v3a1 1 0 0 0 2 0v-3H9v3a1 1 0 0 0 2 0v-3" />
  <path d="M14.4 7c.9 0 1.6-.75 1.6-1.714C16 2.929 14.2 1 12 1S8 2.929 8 5.286C8 6.25 8.7 7 9.6 7z" />
  <path d="M9 18a2 2 0 0 1-2-2v-5a2 2 0 0 1 2-2h6a2 2 0 0 1 2 2v5a2 2 0 0 1-2 2" />
  <rect x="19" y="10" width="2" height="6" rx="1" />
  <rect x="3" y="10" width="2" height="6" rx="1" />
</svg>

<svg xmlns="http://www.w3.org/2000/svg" width="24" height="24" viewBox="0 0 24 24" fill="none" stroke="currentColor" stroke-width="2" stroke-linecap="round" stroke-linejoin="round" >
  <path d="M11 18V21C11 21.5 10.6 22 10 22C9.4 22 9 21.5 9 21V18H11Z" stroke-miterlimit="10"/>
  <path d="M15 18V21C15 21.5 14.6 22 14 22C13.4 22 13 21.5 13 21V18H15Z" stroke-miterlimit="10"/>
  <path d="M17 11V16C17 17.1 16.1 18 15 18H9C7.9 18 7 17.1 7 16V11C7 9.9 7.9 9 9 9H15C16.1 9 17 9.9 17 11Z" stroke-miterlimit="10"/>
  <path d="M5 11V15C5 15.6 4.6 16 4 16C3.4 16 3 15.6 3 15V11C3 10.4 3.4 10 4 10C4.6 10 5 10.4 5 11Z" stroke-miterlimit="10"/>
  <path d="M21 11V15C21 15.6 20.6 16 20 16C19.4 16 19 15.6 19 15V11C19 10.4 19.4 10 20 10C20.6 10 21 10.4 21 11Z" stroke-miterlimit="10"/>
  <path d="M13 18H11" stroke-miterlimit="10"/>
  <path d="M9.6 7H14.4C15.3 7 16 6.25 16 5.28571C16 2.92857 14.2 1 12 1C9.8 1 8 2.92857 8 5.28571C8 6.25 8.7 7 9.6 7Z" stroke-miterlimit="10"/>
  </svg>
